;FLAVOR:Marlin
;TIME:806
;Filament used: 0.813133m
;Layer height: 0.15
;MINX:-6.3
;MINY:-33.8
;MINZ:0.3
;MAXX:6.3
;MAXY:33.8
;MAXZ:7.95
;Generated with Cura_SteamEngine 4.8.0
M140 S60
M105
M190 S60
M104 S200
M105
M109 S200
M82 ;absolute extrusion mode
G21        ;metric values
G90        ;absolute positioning
M107       ;start with the fan off
G28   ;move to endstops
G92 E0                  ;zero the extruded length
G1 F200 E3              ;extrude 3mm of feed stock
G92 E0                  ;zero the extruded length again
G1 F120
;Put printing message on LCD screen
M117 Printing...
G92 E0
G92 E0
G1 F1500 E-6.5
;LAYER_COUNT:52
;LAYER:0
M107
G0 F3600 X6.3 Y-30 Z0.3
;TYPE:SKIRT
G1 F1500 E0
G1 F1800 X6.3 Y30 E2.99341
G1 X6.26 Y30.55 E3.02092
G1 X6.141 Y31.088 E3.04841
G1 X5.945 Y31.603 E3.07591
G1 X5.677 Y32.084 E3.10338
G1 X5.343 Y32.522 E3.13086
G1 X4.948 Y32.906 E3.15834
G1 X4.502 Y33.23 E3.18584
G1 X4.014 Y33.485 E3.21331
G1 X3.494 Y33.668 E3.24082
G1 X2.953 Y33.773 E3.26831
G1 X2.5 Y33.8 E3.29095
G1 X-2.5 Y33.8 E3.5404
G1 X-3.05 Y33.76 E3.56791
G1 X-3.588 Y33.641 E3.5954
G1 X-4.103 Y33.445 E3.62289
G1 X-4.584 Y33.177 E3.65036
G1 X-5.022 Y32.843 E3.67785
G1 X-5.406 Y32.448 E3.70533
G1 X-5.73 Y32.002 E3.73283
G1 X-5.985 Y31.514 E3.7603
G1 X-6.168 Y30.994 E3.7878
G1 X-6.273 Y30.453 E3.8153
G1 X-6.3 Y30 E3.83794
G1 X-6.3 Y-30 E6.83135
G1 X-6.26 Y-30.55 E6.85886
G1 X-6.141 Y-31.088 E6.88635
G1 X-5.945 Y-31.603 E6.91384
G1 X-5.677 Y-32.084 E6.94132
G1 X-5.343 Y-32.522 E6.9688
G1 X-4.948 Y-32.906 E6.99628
G1 X-4.502 Y-33.23 E7.02378
G1 X-4.014 Y-33.485 E7.05125
G1 X-3.494 Y-33.668 E7.07875
G1 X-2.953 Y-33.773 E7.10625
G1 X-2.5 Y-33.8 E7.12889
G1 X2.5 Y-33.8 E7.37834
G1 X3.05 Y-33.76 E7.40585
G1 X3.588 Y-33.641 E7.43334
G1 X4.103 Y-33.445 E7.46083
G1 X4.584 Y-33.177 E7.4883
G1 X5.022 Y-32.843 E7.51578
G1 X5.406 Y-32.448 E7.54327
G1 X5.73 Y-32.002 E7.57077
G1 X5.985 Y-31.514 E7.59824
G1 X6.168 Y-30.994 E7.62574
G1 X6.273 Y-30.453 E7.65324
G1 X6.3 Y-30 E7.67588
G0 F3600 X5.9 Y-30
G1 F1800 X5.9 Y30 E10.66929
G1 X5.86 Y30.52 E10.69531
G1 X5.741 Y31.027 E10.72129
G1 X5.546 Y31.51 E10.74728
G1 X5.28 Y31.958 E10.77327
G1 X4.948 Y32.36 E10.79928
G1 X4.558 Y32.706 E10.82529
G1 X4.12 Y32.989 E10.85131
G1 X3.645 Y33.202 E10.87728
G1 X3.142 Y33.339 E10.90329
G1 X2.5 Y33.4 E10.93546
G1 X-2.5 Y33.4 E11.18492
G1 X-3.02 Y33.36 E11.21094
G1 X-3.527 Y33.241 E11.23692
G1 X-4.01 Y33.046 E11.2629
G1 X-4.458 Y32.78 E11.2889
G1 X-4.86 Y32.448 E11.31491
G1 X-5.206 Y32.058 E11.34092
G1 X-5.489 Y31.62 E11.36694
G1 X-5.702 Y31.145 E11.39291
G1 X-5.839 Y30.642 E11.41892
G1 X-5.9 Y30 E11.45109
G1 X-5.9 Y-30 E14.4445
G1 X-5.86 Y-30.52 E14.47052
G1 X-5.741 Y-31.027 E14.4965
G1 X-5.546 Y-31.51 E14.52249
G1 X-5.28 Y-31.958 E14.54848
G1 X-4.948 Y-32.36 E14.57449
G1 X-4.558 Y-32.706 E14.60051
G1 X-4.12 Y-32.989 E14.62652
G1 X-3.645 Y-33.202 E14.65249
G1 X-3.142 Y-33.339 E14.6785
G1 X-2.5 Y-33.4 E14.71068
G1 X2.5 Y-33.4 E14.96013
G1 X3.02 Y-33.36 E14.98615
G1 X3.527 Y-33.241 E15.01213
G1 X4.01 Y-33.046 E15.03812
G1 X4.458 Y-32.78 E15.06411
G1 X4.86 Y-32.448 E15.09012
G1 X5.206 Y-32.058 E15.11613
G1 X5.489 Y-31.62 E15.14215
G1 X5.702 Y-31.145 E15.16812
G1 X5.839 Y-30.642 E15.19413
G1 X5.9 Y-30 E15.2263
G0 F3600 X5.5 Y-30
G1 F1800 X5.5 Y30 E18.21971
G1 X5.46 Y30.488 E18.24414
G1 X5.341 Y30.963 E18.26857
G1 X5.147 Y31.412 E18.29297
G1 X4.882 Y31.824 E18.31741
G1 X4.554 Y32.187 E18.34182
G1 X4.171 Y32.492 E18.36625
G1 X3.743 Y32.73 E18.39068
G1 X3.283 Y32.896 E18.41508
G1 X2.5 Y33 E18.45449
G1 X-2.5 Y33 E18.70394
G1 X-2.988 Y32.96 E18.72836
G1 X-3.463 Y32.841 E18.7528
G1 X-3.912 Y32.647 E18.7772
G1 X-4.324 Y32.382 E18.80164
G1 X-4.687 Y32.054 E18.82604
G1 X-4.992 Y31.671 E18.85047
G1 X-5.23 Y31.243 E18.8749
G1 X-5.396 Y30.783 E18.8993
G1 X-5.5 Y30 E18.93871
G1 X-5.5 Y-30 E21.93212
G1 X-5.46 Y-30.488 E21.95655
G1 X-5.341 Y-30.963 E21.98098
G1 X-5.147 Y-31.412 E22.00538
G1 X-4.882 Y-31.824 E22.02982
G1 X-4.554 Y-32.187 E22.05423
G1 X-4.171 Y-32.492 E22.07866
G1 X-3.743 Y-32.73 E22.10309
G1 X-3.283 Y-32.896 E22.12749
G1 X-2.5 Y-33 E22.16689
G1 X2.5 Y-33 E22.41634
G1 X2.988 Y-32.96 E22.44077
G1 X3.463 Y-32.841 E22.4652
G1 X3.912 Y-32.647 E22.4896
G1 X4.324 Y-32.382 E22.51404
G1 X4.687 Y-32.054 E22.53845
G1 X4.992 Y-31.671 E22.56288
G1 X5.23 Y-31.243 E22.58731
G1 X5.396 Y-30.783 E22.61171
G1 X5.5 Y-30 E22.65112
G0 F3600 X5.1 Y-30
G1 F1800 X5.1 Y30 E25.64453
G1 X5.06 Y30.454 E25.66727
G1 X4.942 Y30.894 E25.68999
G1 X4.748 Y31.306 E25.71271
G1 X4.485 Y31.679 E25.73548
G1 X4.162 Y32 E25.7582
G1 X3.787 Y32.259 E25.78094
G1 X3.373 Y32.449 E25.80367
G1 X2.932 Y32.564 E25.8264
G1 X2.5 Y32.6 E25.84803
G1 X-2.5 Y32.6 E26.09748
G1 X-2.954 Y32.56 E26.12022
G1 X-3.394 Y32.442 E26.14295
G1 X-3.806 Y32.248 E26.16567
G1 X-4.179 Y31.985 E26.18844
G1 X-4.5 Y31.662 E26.21115
G1 X-4.759 Y31.287 E26.23389
G1 X-4.949 Y30.873 E26.25662
G1 X-5.064 Y30.432 E26.27936
G1 X-5.1 Y30 E26.30098
G1 X-5.1 Y-30 E29.29439
G1 X-5.06 Y-30.454 E29.31713
G1 X-4.942 Y-30.894 E29.33986
G1 X-4.748 Y-31.306 E29.36258
G1 X-4.485 Y-31.679 E29.38535
G1 X-4.162 Y-32 E29.40807
G1 X-3.787 Y-32.259 E29.43081
G1 X-3.373 Y-32.449 E29.45353
G1 X-2.932 Y-32.564 E29.47627
G1 X-2.5 Y-32.6 E29.4979
G1 X2.5 Y-32.6 E29.74735
G1 X2.954 Y-32.56 E29.77008
G1 X3.394 Y-32.442 E29.79281
G1 X3.806 Y-32.248 E29.81553
G1 X4.179 Y-31.985 E29.8383
G1 X4.5 Y-31.662 E29.86102
G1 X4.759 Y-31.287 E29.88376
G1 X4.949 Y-30.873 E29.90648
G1 X5.064 Y-30.432 E29.92922
G1 X5.1 Y-30 E29.95085
G0 F3600 X4.7 Y-30
G1 F1800 X4.7 Y30 E32.94426
G1 X4.66 Y30.417 E32.96516
G1 X4.542 Y30.819 E32.98606
G1 X4.349 Y31.191 E33.00697
G1 X4.09 Y31.52 E33.02786
G1 X3.773 Y31.794 E33.04876
G1 X3.41 Y32.003 E33.06966
G1 X3.013 Y32.139 E33.0906
G1 X2.5 Y32.2 E33.11637
G1 X-2.5 Y32.2 E33.36582
G1 X-2.917 Y32.16 E33.38672
G1 X-3.319 Y32.042 E33.40762
G1 X-3.691 Y31.849 E33.42853
G1 X-4.02 Y31.59 E33.44942
G1 X-4.294 Y31.273 E33.47033
G1 X-4.503 Y30.91 E33.49122
G1 X-4.639 Y30.513 E33.51216
G1 X-4.7 Y30 E33.53793
G1 X-4.7 Y-30 E36.53135
G1 X-4.66 Y-30.417 E36.55225
G1 X-4.542 Y-30.819 E36.57315
G1 X-4.349 Y-31.191 E36.59406
G1 X-4.09 Y-31.52 E36.61495
G1 X-3.773 Y-31.794 E36.63585
G1 X-3.41 Y-32.003 E36.65675
G1 X-3.013 Y-32.139 E36.67768
G1 X-2.5 Y-32.2 E36.70346
G1 X2.5 Y-32.2 E36.95291
G1 X2.917 Y-32.16 E36.97381
G1 X3.319 Y-32.042 E36.99471
G1 X3.691 Y-31.849 E37.01562
G1 X4.02 Y-31.59 E37.03651
G1 X4.294 Y-31.273 E37.05741
G1 X4.503 Y-30.91 E37.07831
G1 X4.639 Y-30.513 E37.09925
G1 X4.7 Y-30 E37.12502
G0 F3600 X4.3 Y-30
G1 F1800 X4.3 Y30 E40.11843
G1 X4.26 Y30.377 E40.13735
G1 X4.142 Y30.737 E40.15625
G1 X3.952 Y31.064 E40.17512
G1 X3.697 Y31.345 E40.19405
G1 X3.388 Y31.565 E40.21297
G1 X3.041 Y31.717 E40.23187
G1 X2.5 Y31.8 E40.25918
G1 X-2.5 Y31.8 E40.50863
G1 X-2.877 Y31.76 E40.52754
G1 X-3.237 Y31.642 E40.54644
G1 X-3.564 Y31.452 E40.56531
G1 X-3.845 Y31.197 E40.58424
G1 X-4.065 Y30.888 E40.60317
G1 X-4.217 Y30.541 E40.62207
G1 X-4.3 Y30 E40.64937
G1 X-4.3 Y-30 E43.64279
G1 X-4.26 Y-30.377 E43.6617
G1 X-4.142 Y-30.737 E43.6806
G1 X-3.952 Y-31.064 E43.69947
G1 X-3.697 Y-31.345 E43.7184
G1 X-3.388 Y-31.565 E43.73732
G1 X-3.041 Y-31.717 E43.75622
G1 X-2.5 Y-31.8 E43.78353
G1 X2.5 Y-31.8 E44.03298
G1 X2.877 Y-31.76 E44.0519
G1 X3.237 Y-31.642 E44.0708
G1 X3.564 Y-31.452 E44.08966
G1 X3.845 Y-31.197 E44.1086
G1 X4.065 Y-30.888 E44.12752
G1 X4.217 Y-30.541 E44.14642
G1 X4.3 Y-30 E44.17373
G0 F3600 X3.9 Y-30
G1 F1800 X3.9 Y30 E47.16714
G1 X3.86 Y30.332 E47.18382
G1 X3.743 Y30.644 E47.20045
G1 X3.555 Y30.921 E47.21715
G1 X3.307 Y31.144 E47.23379
G1 X3.013 Y31.303 E47.25046
G1 X2.5 Y31.4 E47.27651
G1 X-2.5 Y31.4 E47.52596
G1 X-2.832 Y31.36 E47.54264
G1 X-3.144 Y31.243 E47.55927
G1 X-3.421 Y31.055 E47.57597
G1 X-3.644 Y30.807 E47.59261
G1 X-3.803 Y30.513 E47.60928
G1 X-3.9 Y30 E47.63533
G1 X-3.9 Y-30 E50.62874
G1 X-3.86 Y-30.332 E50.64543
G1 X-3.743 Y-30.644 E50.66205
G1 X-3.555 Y-30.921 E50.67875
G1 X-3.307 Y-31.144 E50.69539
G1 X-3.013 Y-31.303 E50.71207
G1 X-2.5 Y-31.4 E50.73811
G1 X2.5 Y-31.4 E50.98757
G1 X2.832 Y-31.36 E51.00425
G1 X3.144 Y-31.243 E51.02087
G1 X3.421 Y-31.055 E51.03758
G1 X3.644 Y-30.807 E51.05421
G1 X3.803 Y-30.513 E51.07089
G1 X3.9 Y-30 E51.09694
G0 F3600 X3.5 Y-30
G1 F1800 X3.5 Y30 E54.09035
G1 X3.46 Y30.279 E54.10441
G1 X3.344 Y30.536 E54.11848
G1 X3.161 Y30.751 E54.13256
G1 X2.925 Y30.905 E54.14662
G1 X2.5 Y31 E54.16835
G1 X-2.5 Y31 E54.4178
G1 X-2.779 Y30.96 E54.43186
G1 X-3.036 Y30.844 E54.44593
G1 X-3.251 Y30.661 E54.46002
G1 X-3.405 Y30.425 E54.47407
G1 X-3.5 Y30 E54.4958
G1 X-3.5 Y-30 E57.48921
G1 X-3.46 Y-30.279 E57.50328
G1 X-3.344 Y-30.536 E57.51734
G1 X-3.161 Y-30.751 E57.53143
G1 X-2.925 Y-30.905 E57.54549
G1 X-2.5 Y-31 E57.56721
G1 X2.5 Y-31 E57.81666
G1 X2.779 Y-30.96 E57.83073
G1 X3.036 Y-30.844 E57.84479
G1 X3.251 Y-30.661 E57.85888
G1 X3.405 Y-30.425 E57.87294
G1 X3.5 Y-30 E57.89467
G0 F3600 X3.1 Y-30
G1 F1800 X3.1 Y30 E60.88808
G1 X3.06 Y30.215 E60.89899
G1 X2.947 Y30.401 E60.90985
G1 X2.774 Y30.534 E60.92073
G1 X2.5 Y30.6 E60.93479
G1 X-2.5 Y30.6 E61.18424
G1 X-2.715 Y30.56 E61.19516
G1 X-2.901 Y30.447 E61.20601
G1 X-3.034 Y30.274 E61.2169
G1 X-3.1 Y30 E61.23096
G1 X-3.1 Y-30 E64.22437
G1 X-3.06 Y-30.215 E64.23528
G1 X-2.947 Y-30.401 E64.24614
G1 X-2.774 Y-30.534 E64.25703
G1 X-2.5 Y-30.6 E64.27109
G1 X2.5 Y-30.6 E64.52054
G1 X2.715 Y-30.56 E64.53145
G1 X2.901 Y-30.447 E64.54231
G1 X3.034 Y-30.274 E64.5532
G1 X3.1 Y-30 E64.56726
G0 F3600 X2.7 Y-30
G1 F1800 X2.7 Y30 E67.56067
G1 X2.661 Y30.119 E67.56692
G1 X2.5 Y30.2 E67.57591
G1 X-2.5 Y30.2 E67.82536
G1 X-2.619 Y30.161 E67.83161
G1 X-2.7 Y30 E67.8406
G1 X-2.7 Y-30 E70.83401
G1 X-2.661 Y-30.119 E70.84026
G1 X-2.5 Y-30.2 E70.84925
G1 X2.5 Y-30.2 E71.0987
G1 X2.619 Y-30.161 E71.10495
G1 X2.7 Y-30 E71.11394
G1 F1500 E64.61394
;MESH:pcb_rail.stl
G0 F3600 X1.886 Y-29.386
G0 X1.83 Y29.33
G0 X2.3 Y29.8
;TYPE:WALL-OUTER
G1 F1500 E71.11394
G1 F1800 X-2.3 Y29.8 E71.34343
G1 X-2.3 Y-29.8 E74.31689
G1 X2.3 Y-29.8 E74.54639
G1 X2.3 Y29.8 E77.51984
G0 F3600 X2.1 Y29.8
G0 X1.9 Y29.4
;TYPE:WALL-INNER
G1 F1800 X-1.9 Y29.4 E77.70942
G1 X-1.9 Y-29.4 E80.64297
G1 X1.9 Y-29.4 E80.83255
G1 X1.9 Y29.4 E83.76609
G0 F3600 X1.5 Y29
G1 F1800 X-1.5 Y29 E83.91577
G1 X-1.5 Y-29 E86.8094
G1 X1.5 Y-29 E86.95907
G1 X1.5 Y29 E89.8527
G0 F3600 X1.11 Y28.61
;TYPE:SKIN
G1 F1800 X-1.11 Y28.61 E89.96346
G1 X-1.11 Y-28.61 E92.81817
G1 X1.11 Y-28.61 E92.92893
G1 X1.11 Y28.61 E95.78365
G0 F3600 X-.929 Y27.92
G1 F1800 X-.42 Y28.429 E95.81956
G0 F3600 X0.144 Y28.429
G1 F1800 X-.929 Y27.354 E95.89534
G0 F3600 X-.929 Y26.788
G1 F1800 X0.71 Y28.429 E96.01105
G0 F3600 X0.929 Y28.082
G1 F1800 X-.929 Y26.223 E96.14217
G0 F3600 X-.929 Y25.657
G1 F1800 X0.929 Y27.517 E96.27334
G0 F3600 X0.929 Y26.951
G1 F1800 X-.929 Y25.091 E96.4045
G0 F3600 X-.929 Y24.525
G1 F1800 X0.929 Y26.385 E96.53566
G0 F3600 X0.929 Y25.82
G1 F1800 X-.929 Y23.96 E96.66682
G0 F3600 X-.929 Y23.394
G1 F1800 X0.929 Y25.254 E96.79799
G0 F3600 X0.929 Y24.688
G1 F1800 X-.929 Y22.828 E96.92915
G0 F3600 X-.929 Y22.263
G1 F1800 X0.929 Y24.122 E97.06028
G0 F3600 X0.929 Y23.557
G1 F1800 X-.929 Y21.697 E97.19144
G0 F3600 X-.929 Y21.131
G1 F1800 X0.929 Y22.991 E97.3226
G0 F3600 X0.929 Y22.425
G1 F1800 X-.929 Y20.566 E97.45373
G0 F3600 X-.929 Y20
G1 F1800 X0.929 Y21.86 E97.58489
G0 F3600 X0.929 Y21.294
G1 F1800 X-.929 Y19.434 E97.71605
G0 F3600 X-.929 Y18.869
G1 F1800 X0.929 Y20.728 E97.84718
G0 F3600 X0.929 Y20.163
G1 F1800 X-.929 Y18.303 E97.97834
G0 F3600 X-.929 Y17.737
G1 F1800 X0.929 Y19.597 E98.10951
G0 F3600 X0.929 Y19.031
G1 F1800 X-.929 Y17.172 E98.24063
G0 F3600 X-.929 Y16.606
G1 F1800 X0.929 Y18.466 E98.3718
G0 F3600 X0.929 Y17.9
G1 F1800 X-.929 Y16.04 E98.50296
G0 F3600 X-.929 Y15.475
G1 F1800 X0.929 Y17.334 E98.63409
G0 F3600 X0.929 Y16.769
G1 F1800 X-.929 Y14.909 E98.76525
G0 F3600 X-.929 Y14.343
G1 F1800 X0.929 Y16.203 E98.89641
G0 F3600 X0.929 Y15.637
G1 F1800 X-.929 Y13.777 E99.02757
G0 F3600 X-.929 Y13.212
G1 F1800 X0.929 Y15.071 E99.1587
G0 F3600 X0.929 Y14.506
G1 F1800 X-.929 Y12.646 E99.28986
G0 F3600 X-.929 Y12.08
G1 F1800 X0.929 Y13.94 E99.42102
G0 F3600 X0.929 Y13.374
G1 F1800 X-.929 Y11.515 E99.55215
G0 F3600 X-.929 Y10.949
G1 F1800 X0.929 Y12.809 E99.68331
G0 F3600 X0.929 Y12.243
G1 F1800 X-.929 Y10.383 E99.81448
G0 F3600 X-.929 Y9.818
G1 F1800 X0.929 Y11.677 E99.9456
G0 F3600 X0.929 Y11.112
G1 F1800 X-.929 Y9.252 E100.07677
G0 F3600 X-.929 Y8.686
G1 F1800 X0.929 Y10.546 E100.20793
G0 F3600 X0.929 Y9.98
G1 F1800 X-.929 Y8.121 E100.33906
G0 F3600 X-.929 Y7.555
G1 F1800 X0.929 Y9.415 E100.47022
G0 F3600 X0.929 Y8.849
G1 F1800 X-.929 Y6.989 E100.60138
G0 F3600 X-.929 Y6.424
G1 F1800 X0.929 Y8.283 E100.73251
G0 F3600 X0.929 Y7.718
G1 F1800 X-.929 Y5.858 E100.86367
G0 F3600 X-.929 Y5.292
G1 F1800 X0.929 Y7.152 E100.99483
G0 F3600 X0.929 Y6.586
G1 F1800 X-.929 Y4.727 E101.12596
G0 F3600 X-.929 Y4.161
G1 F1800 X0.929 Y6.021 E101.25712
G0 F3600 X0.929 Y5.455
G1 F1800 X-.929 Y3.595 E101.38829
G0 F3600 X-.929 Y3.029
G1 F1800 X0.929 Y4.889 E101.51945
G0 F3600 X0.929 Y4.323
G1 F1800 X-.929 Y2.464 E101.65058
G0 F3600 X-.929 Y1.898
G1 F1800 X0.929 Y3.758 E101.78174
G0 F3600 X0.929 Y3.192
G1 F1800 X-.929 Y1.332 E101.9129
G0 F3600 X-.929 Y0.767
G1 F1800 X0.929 Y2.626 E102.04403
G0 F3600 X0.929 Y2.061
G1 F1800 X-.929 Y0.201 E102.17519
G0 F3600 X-.929 Y-.364
G1 F1800 X0.929 Y1.495 E102.30632
G0 F3600 X0.929 Y0.929
G1 F1800 X-.929 Y-.929 E102.43741
G0 F3600 X-.929 Y-1.495
G1 F1800 X0.929 Y0.364 E102.56854
G0 F3600 X0.929 Y-.201
G1 F1800 X-.929 Y-2.061 E102.6997
G0 F3600 X-.929 Y-2.626
G1 F1800 X0.929 Y-.767 E102.83083
G0 F3600 X0.929 Y-1.332
G1 F1800 X-.929 Y-3.192 E102.96199
G0 F3600 X-.929 Y-3.758
G1 F1800 X0.929 Y-1.898 E103.09315
G0 F3600 X0.929 Y-2.464
G1 F1800 X-.929 Y-4.323 E103.22428
G0 F3600 X-.929 Y-4.889
G1 F1800 X0.929 Y-3.029 E103.35544
G0 F3600 X0.929 Y-3.595
G1 F1800 X-.929 Y-5.455 E103.4866
G0 F3600 X-.929 Y-6.021
G1 F1800 X0.929 Y-4.161 E103.61777
G0 F3600 X0.929 Y-4.727
G1 F1800 X-.929 Y-6.586 E103.74889
G0 F3600 X-.929 Y-7.152
G1 F1800 X0.929 Y-5.292 E103.88006
G0 F3600 X0.929 Y-5.858
G1 F1800 X-.929 Y-7.718 E104.01122
G0 F3600 X-.929 Y-8.283
G1 F1800 X0.929 Y-6.424 E104.14235
G0 F3600 X0.929 Y-6.989
G1 F1800 X-.929 Y-8.849 E104.27351
G0 F3600 X-.929 Y-9.415
G1 F1800 X0.929 Y-7.555 E104.40467
G0 F3600 X0.929 Y-8.121
G1 F1800 X-.929 Y-9.98 E104.5358
G0 F3600 X-.929 Y-10.546
G1 F1800 X0.929 Y-8.686 E104.66696
G0 F3600 X0.929 Y-9.252
G1 F1800 X-.929 Y-11.112 E104.79812
G0 F3600 X-.929 Y-11.677
G1 F1800 X0.929 Y-9.818 E104.92925
G0 F3600 X0.929 Y-10.383
G1 F1800 X-.929 Y-12.243 E105.06041
G0 F3600 X-.929 Y-12.809
G1 F1800 X0.929 Y-10.949 E105.19158
G0 F3600 X0.929 Y-11.515
G1 F1800 X-.929 Y-13.374 E105.3227
G0 F3600 X-.929 Y-13.94
G1 F1800 X0.929 Y-12.08 E105.45387
G0 F3600 X0.929 Y-12.646
G1 F1800 X-.929 Y-14.506 E105.58503
G0 F3600 X-.929 Y-15.071
G1 F1800 X0.929 Y-13.212 E105.71615
G0 F3600 X0.929 Y-13.777
G1 F1800 X-.929 Y-15.637 E105.84732
G0 F3600 X-.929 Y-16.203
G1 F1800 X0.929 Y-14.343 E105.97848
G0 F3600 X0.929 Y-14.909
G1 F1800 X-.929 Y-16.769 E106.10964
G0 F3600 X-.929 Y-17.334
G1 F1800 X0.929 Y-15.475 E106.24077
G0 F3600 X0.929 Y-16.04
G1 F1800 X-.929 Y-17.9 E106.37193
G0 F3600 X-.929 Y-18.466
G1 F1800 X0.929 Y-16.606 E106.50309
G0 F3600 X0.929 Y-17.172
G1 F1800 X-.929 Y-19.031 E106.63422
G0 F3600 X-.929 Y-19.597
G1 F1800 X0.929 Y-17.737 E106.76538
G0 F3600 X0.929 Y-18.303
G1 F1800 X-.929 Y-20.163 E106.89655
G0 F3600 X-.929 Y-20.728
