;FLAVOR:Marlin
;TIME:862
;Filament used: 0.806153m
;Layer height: 0.15
;MINX:-33.695
;MINY:-33.7
;MINZ:0.3
;MAXX:33.695
;MAXY:33.7
;MAXZ:9.9
;Generated with Cura_SteamEngine 4.8.0
M140 S60
M105
M190 S60
M104 S200
M105
M109 S200
M82 ;absolute extrusion mode
G21        ;metric values
G90        ;absolute positioning
M107       ;start with the fan off
G28   ;move to endstops
G92 E0                  ;zero the extruded length
G1 F200 E3              ;extrude 3mm of feed stock
G92 E0                  ;zero the extruded length again
G1 F120
;Put printing message on LCD screen
M117 Printing...
G92 E0
G92 E0
G1 F1500 E-6.5
;LAYER_COUNT:65
;LAYER:0
M107
G0 F3600 X-3.294 Y33.537 Z0.3
;TYPE:SKIRT
G1 F1500 E0
G1 F1800 X-3.475 Y33.519 E0.00907
G1 X-4.932 Y33.337 E0.08233
G1 X-5.118 Y33.309 E0.09171
G1 X-6.587 Y33.051 E0.16612
G1 X-6.782 Y33.011 E0.17606
G1 X-8.256 Y32.672 E0.25151
G1 X-8.434 Y32.627 E0.26067
G1 X-9.868 Y32.223 E0.335
G1 X-10.048 Y32.167 E0.34441
G1 X-11.441 Y31.699 E0.41772
G1 X-11.622 Y31.633 E0.42733
G1 X-13.03 Y31.079 E0.50282
G1 X-13.203 Y31.006 E0.51219
G1 X-14.543 Y30.401 E0.58554
G1 X-14.712 Y30.32 E0.59489
G1 X-16.037 Y29.641 E0.66917
G1 X-16.204 Y29.55 E0.67865
G1 X-17.496 Y28.804 E0.75309
G1 X-17.658 Y28.705 E0.76256
G1 X-18.927 Y27.885 E0.83794
G1 X-19.085 Y27.777 E0.84748
G1 X-20.278 Y26.918 E0.92083
G1 X-20.426 Y26.806 E0.93009
G1 X-21.593 Y25.876 E1.00454
G1 X-21.74 Y25.753 E1.0141
G1 X-22.874 Y24.752 E1.08956
G1 X-23.017 Y24.619 E1.0993
G1 X-24.082 Y23.577 E1.17364
G1 X-24.209 Y23.447 E1.18271
G1 X-25.209 Y22.37 E1.25603
G1 X-25.337 Y22.225 E1.26568
G1 X-26.294 Y21.083 E1.34001
G1 X-26.409 Y20.938 E1.34925
G1 X-27.309 Y19.751 E1.42356
G1 X-27.421 Y19.594 E1.43318
G1 X-28.261 Y18.361 E1.50762
G1 X-28.363 Y18.204 E1.51696
G1 X-29.141 Y16.931 E1.59139
G1 X-29.237 Y16.764 E1.601
G1 X-29.959 Y15.436 E1.67641
G1 X-30.044 Y15.272 E1.68563
G1 X-30.683 Y13.947 E1.75902
G1 X-30.762 Y13.771 E1.76864
G1 X-31.34 Y12.399 E1.84292
G1 X-31.408 Y12.225 E1.85224
G1 X-31.919 Y10.823 E1.92669
G1 X-31.981 Y10.638 E1.93642
G1 X-32.419 Y9.213 E2.0108
G1 X-32.47 Y9.032 E2.02018
G1 X-32.842 Y7.566 E2.09564
G1 X-32.884 Y7.381 E2.1051
G1 X-33.178 Y5.921 E2.1794
G1 X-33.21 Y5.739 E2.18862
G1 X-33.43 Y4.285 E2.26199
G1 X-33.454 Y4.094 E2.27159
G1 X-33.602 Y2.611 E2.34595
G1 X-33.616 Y2.423 E2.35535
G1 X-33.69 Y0.935 E2.42968
G1 X-33.695 Y0.746 E2.43911
G1 X-33.695 Y-.745 E2.5135
G1 X-33.69 Y-.934 E2.52293
G1 X-33.616 Y-2.422 E2.59726
G1 X-33.602 Y-2.61 E2.60667
G1 X-33.454 Y-4.094 E2.68107
G1 X-33.43 Y-4.285 E2.69067
G1 X-33.207 Y-5.76 E2.7651
G1 X-33.175 Y-5.944 E2.77442
G1 X-32.88 Y-7.406 E2.84883
G1 X-32.837 Y-7.592 E2.85835
G1 X-32.469 Y-9.036 E2.93269
G1 X-32.418 Y-9.219 E2.94217
G1 X-31.972 Y-10.664 E3.01762
G1 X-31.912 Y-10.841 E3.02694
G1 X-31.41 Y-12.222 E3.10025
G1 X-31.339 Y-12.403 E3.10995
G1 X-30.759 Y-13.776 E3.18431
G1 X-30.682 Y-13.946 E3.19362
G1 X-30.035 Y-15.289 E3.268
G1 X-29.949 Y-15.459 E3.2775
G1 X-29.235 Y-16.769 E3.35193
G1 X-29.14 Y-16.932 E3.36135
G1 X-28.363 Y-18.203 E3.43567
G1 X-28.263 Y-18.358 E3.44487
G1 X-27.425 Y-19.59 E3.51921
G1 X-27.31 Y-19.75 E3.52904
G1 X-26.408 Y-20.939 E3.60349
G1 X-26.289 Y-21.088 E3.61301
G1 X-25.316 Y-22.245 E3.68843
G1 X-25.195 Y-22.382 E3.69755
G1 X-24.196 Y-23.46 E3.77087
G1 X-24.063 Y-23.597 E3.7804
G1 X-22.996 Y-24.638 E3.85477
G1 X-22.857 Y-24.767 E3.86423
G1 X-21.74 Y-25.753 E3.93856
G1 X-21.593 Y-25.876 E3.94813
G1 X-20.426 Y-26.806 E4.02257
G1 X-20.278 Y-26.918 E4.03183
G1 X-19.069 Y-27.788 E4.10614
G1 X-18.908 Y-27.898 E4.11587
G1 X-17.636 Y-28.718 E4.19138
G1 X-17.476 Y-28.815 E4.20071
G1 X-16.204 Y-29.549 E4.27398
G1 X-16.037 Y-29.64 E4.28347
G1 X-14.69 Y-30.33 E4.35897
G1 X-14.517 Y-30.413 E4.36855
G1 X-13.157 Y-31.025 E4.44295
G1 X-12.988 Y-31.097 E4.45212
G1 X-11.622 Y-31.634 E4.52534
G1 X-11.442 Y-31.699 E4.53489
G1 X-10.028 Y-32.174 E4.60931
G1 X-9.843 Y-32.231 E4.61897
G1 X-8.386 Y-32.639 E4.69445
G1 X-8.208 Y-32.685 E4.70363
G1 X-6.777 Y-33.012 E4.77686
G1 X-6.59 Y-33.049 E4.78637
G1 X-5.121 Y-33.308 E4.86079
G1 X-4.933 Y-33.337 E4.87028
G1 X-3.454 Y-33.522 E4.94464
G1 X-3.267 Y-33.54 E4.95401
G1 X-1.779 Y-33.652 E5.02846
G1 X-1.587 Y-33.662 E5.03805
G1 X-0.028 Y-33.699 E5.11585
G1 X29.895 Y-33.7 E6.60872
G1 X30.444 Y-33.66 E6.63618
G1 X30.982 Y-33.541 E6.66367
G1 X31.498 Y-33.346 E6.69119
G1 X31.979 Y-33.078 E6.71866
G1 X32.417 Y-32.743 E6.74617
G1 X32.801 Y-32.348 E6.77365
G1 X33.125 Y-31.902 E6.80116
G1 X33.38 Y-31.414 E6.82863
G1 X33.563 Y-30.894 E6.85613
G1 X33.668 Y-30.353 E6.88362
G1 X33.695 Y-29.9 E6.90626
G1 X33.695 Y29.9 E9.8897
G1 X33.655 Y30.45 E9.91721
G1 X33.536 Y30.988 E9.9447
G1 X33.34 Y31.503 E9.97219
G1 X33.072 Y31.984 E9.99966
G1 X32.738 Y32.422 E10.02714
G1 X32.343 Y32.806 E10.05463
G1 X31.897 Y33.13 E10.08213
G1 X31.409 Y33.385 E10.1096
G1 X30.889 Y33.568 E10.1371
G1 X30.348 Y33.673 E10.1646
G1 X29.895 Y33.7 E10.18724
G1 X-.101 Y33.699 E11.68374
G1 X-1.612 Y33.661 E11.75915
G1 X-1.806 Y33.651 E11.76884
G1 X-3.294 Y33.537 E11.8433
G0 F3600 X-3.264 Y33.138
G1 F1800 X-3.425 Y33.122 E11.85137
G1 X-4.882 Y32.94 E11.92462
G1 X-5.049 Y32.915 E11.93305
G1 X-6.518 Y32.657 E12.00746
G1 X-6.692 Y32.621 E12.01632
G1 X-8.166 Y32.282 E12.09178
G1 X-8.326 Y32.242 E12.10001
G1 X-9.76 Y31.838 E12.17434
G1 X-9.921 Y31.788 E12.18275
G1 X-11.314 Y31.32 E12.25606
G1 X-11.476 Y31.261 E12.26466
G1 X-12.884 Y30.707 E12.34015
G1 X-13.038 Y30.642 E12.34849
G1 X-14.378 Y30.037 E12.42184
G1 X-14.53 Y29.964 E12.43025
G1 X-15.855 Y29.285 E12.50453
G1 X-16.004 Y29.203 E12.51302
G1 X-17.296 Y28.457 E12.58745
G1 X-17.441 Y28.369 E12.59591
G1 X-18.71 Y27.549 E12.67129
G1 X-18.852 Y27.452 E12.67987
G1 X-20.045 Y26.593 E12.75321
G1 X-20.177 Y26.493 E12.76147
G1 X-21.344 Y25.563 E12.83592
G1 X-21.475 Y25.453 E12.84446
G1 X-22.609 Y24.452 E12.91992
G1 X-22.737 Y24.333 E12.92864
G1 X-23.802 Y23.291 E13.00297
G1 X-23.916 Y23.174 E13.01112
G1 X-24.916 Y22.097 E13.08445
G1 X-25.03 Y21.968 E13.09303
G1 X-25.987 Y20.826 E13.16737
G1 X-26.09 Y20.696 E13.17564
G1 X-26.99 Y19.509 E13.24996
G1 X-27.091 Y19.369 E13.25857
G1 X-27.931 Y18.136 E13.33301
G1 X-28.022 Y17.995 E13.34138
G1 X-28.8 Y16.722 E13.41581
G1 X-28.886 Y16.573 E13.42439
G1 X-29.608 Y15.245 E13.49981
G1 X-29.683 Y15.098 E13.50804
G1 X-30.322 Y13.773 E13.58143
G1 X-30.393 Y13.616 E13.59003
G1 X-30.971 Y12.244 E13.6643
G1 X-31.032 Y12.088 E13.67266
G1 X-31.543 Y10.686 E13.74711
G1 X-31.599 Y10.521 E13.7558
G1 X-32.037 Y9.096 E13.83018
G1 X-32.083 Y8.933 E13.83863
G1 X-32.455 Y7.467 E13.91408
G1 X-32.492 Y7.302 E13.92252
G1 X-32.786 Y5.842 E13.99682
G1 X-32.815 Y5.68 E14.00503
G1 X-33.035 Y4.226 E14.0784
G1 X-33.056 Y4.055 E14.08699
G1 X-33.204 Y2.572 E14.16135
G1 X-33.217 Y2.403 E14.1698
G1 X-33.291 Y0.915 E14.24413
G1 X-33.295 Y0.746 E14.25257
G1 X-33.295 Y-.745 E14.32695
G1 X-33.291 Y-.914 E14.33539
G1 X-33.217 Y-2.402 E14.40971
G1 X-33.204 Y-2.57 E14.41812
G1 X-33.056 Y-4.054 E14.49253
G1 X-33.035 Y-4.225 E14.50112
G1 X-32.812 Y-5.7 E14.57555
G1 X-32.783 Y-5.864 E14.58385
G1 X-32.488 Y-7.326 E14.65826
G1 X-32.45 Y-7.494 E14.66686
G1 X-32.082 Y-8.938 E14.7412
G1 X-32.036 Y-9.101 E14.74965
G1 X-31.59 Y-10.546 E14.8251
G1 X-31.536 Y-10.705 E14.83348
G1 X-31.034 Y-12.086 E14.90678
G1 X-30.971 Y-12.247 E14.91541
G1 X-30.391 Y-13.62 E14.98977
G1 X-30.322 Y-13.773 E14.99814
G1 X-29.675 Y-15.116 E15.07252
G1 X-29.597 Y-15.267 E15.081
G1 X-28.883 Y-16.577 E15.15543
G1 X-28.799 Y-16.723 E15.16383
G1 X-28.022 Y-17.994 E15.23815
G1 X-27.932 Y-18.133 E15.24641
G1 X-27.094 Y-19.365 E15.32075
G1 X-26.992 Y-19.508 E15.32951
G1 X-26.09 Y-20.697 E15.40397
G1 X-25.983 Y-20.83 E15.41249
G1 X-25.01 Y-21.987 E15.48791
G1 X-24.902 Y-22.11 E15.49607
G1 X-23.903 Y-23.188 E15.5694
G1 X-23.783 Y-23.311 E15.57797
G1 X-22.716 Y-24.352 E15.65234
G1 X-22.592 Y-24.467 E15.66078
G1 X-21.475 Y-25.453 E15.73511
G1 X-21.344 Y-25.563 E15.74365
G1 X-20.177 Y-26.493 E15.8181
G1 X-20.044 Y-26.594 E15.82643
G1 X-18.835 Y-27.464 E15.90074
G1 X-18.691 Y-27.562 E15.90943
G1 X-17.419 Y-28.382 E15.98493
G1 X-17.276 Y-28.469 E15.99328
G1 X-16.004 Y-29.203 E16.06655
G1 X-15.855 Y-29.284 E16.07501
G1 X-14.508 Y-29.974 E16.15052
G1 X-14.353 Y-30.049 E16.15911
G1 X-12.993 Y-30.661 E16.23351
G1 X-12.842 Y-30.724 E16.24168
G1 X-11.476 Y-31.261 E16.3149
G1 X-11.315 Y-31.32 E16.32346
G1 X-9.901 Y-31.795 E16.39788
G1 X-9.735 Y-31.846 E16.40654
G1 X-8.278 Y-32.254 E16.48203
G1 X-8.118 Y-32.295 E16.49027
G1 X-6.687 Y-32.622 E16.5635
G1 X-6.52 Y-32.655 E16.57199
G1 X-5.051 Y-32.914 E16.64641
G1 X-4.883 Y-32.94 E16.65489
G1 X-3.404 Y-33.125 E16.72926
G1 X-3.237 Y-33.141 E16.73763
G1 X-1.749 Y-33.253 E16.81207
G1 X-1.577 Y-33.262 E16.82067
G1 X-0.028 Y-33.299 E16.89797
G1 X29.895 Y-33.3 E18.39083
G1 X30.415 Y-33.26 E18.41685
G1 X30.922 Y-33.141 E18.44283
G1 X31.405 Y-32.946 E18.46882
G1 X31.853 Y-32.68 E18.49481
G1 X32.255 Y-32.348 E18.52083
G1 X32.601 Y-31.958 E18.54684
G1 X32.884 Y-31.521 E18.57281
G1 X33.097 Y-31.045 E18.59883
G1 X33.234 Y-30.542 E18.62484
G1 X33.295 Y-29.9 E18.65701
G1 X33.295 Y29.9 E21.64044
G1 X33.255 Y30.42 E21.66646
G1 X33.136 Y30.927 E21.69245
G1 X32.941 Y31.41 E21.71843
G1 X32.675 Y31.858 E21.74443
G1 X32.343 Y32.26 E21.77044
G1 X31.953 Y32.606 E21.79645
G1 X31.515 Y32.889 E21.82246
G1 X31.04 Y33.102 E21.84844
G1 X30.537 Y33.239 E21.87444
G1 X29.895 Y33.3 E21.90662
G1 X-0.09 Y33.299 E23.40258
G1 X-1.601 Y33.261 E23.47798
G1 X-1.776 Y33.252 E23.48673
G1 X-3.264 Y33.138 E23.56118
G0 F3600 X-3.233 Y32.739
G1 F1800 X-3.376 Y32.725 E23.56835
G1 X-4.833 Y32.543 E23.6416
G1 X-4.98 Y32.521 E23.64902
G1 X-6.449 Y32.263 E23.72343
G1 X-6.602 Y32.232 E23.73122
G1 X-8.076 Y31.893 E23.80668
G1 X-8.218 Y31.857 E23.81398
G1 X-9.652 Y31.453 E23.88831
G1 X-9.793 Y31.409 E23.89568
G1 X-11.186 Y30.941 E23.969
G1 X-11.329 Y30.889 E23.97659
G1 X-12.737 Y30.335 E24.05207
G1 X-12.873 Y30.277 E24.05945
G1 X-14.213 Y29.672 E24.1328
G1 X-14.347 Y29.608 E24.14021
G1 X-15.672 Y28.929 E24.21449
G1 X-15.804 Y28.857 E24.22199
G1 X-17.096 Y28.111 E24.29642
G1 X-17.224 Y28.033 E24.3039
G1 X-18.493 Y27.213 E24.37928
G1 X-18.618 Y27.128 E24.38682
G1 X-19.811 Y26.269 E24.46016
G1 X-19.928 Y26.18 E24.4675
G1 X-21.095 Y25.25 E24.54194
G1 X-21.21 Y25.153 E24.54945
G1 X-22.344 Y24.152 E24.62491
G1 X-22.457 Y24.047 E24.63261
G1 X-23.522 Y23.005 E24.70694
G1 X-23.622 Y22.902 E24.71411
G1 X-24.622 Y21.825 E24.78743
G1 X-24.723 Y21.711 E24.79503
G1 X-25.68 Y20.569 E24.86936
G1 X-25.772 Y20.455 E24.87667
G1 X-26.672 Y19.268 E24.95099
G1 X-26.76 Y19.144 E24.95857
G1 X-27.6 Y17.911 E25.03301
G1 X-27.681 Y17.786 E25.04044
G1 X-28.459 Y16.513 E25.11487
G1 X-28.535 Y16.382 E25.12243
G1 X-29.257 Y15.054 E25.19784
G1 X-29.323 Y14.924 E25.20511
G1 X-29.962 Y13.599 E25.2785
G1 X-30.025 Y13.461 E25.28607
G1 X-30.603 Y12.089 E25.36035
G1 X-30.657 Y11.951 E25.36774
G1 X-31.168 Y10.549 E25.44219
G1 X-31.217 Y10.403 E25.44987
G1 X-31.655 Y8.978 E25.52425
G1 X-31.695 Y8.835 E25.53166
G1 X-32.067 Y7.369 E25.60711
G1 X-32.1 Y7.223 E25.61458
G1 X-32.394 Y5.763 E25.68888
G1 X-32.419 Y5.62 E25.69612
G1 X-32.639 Y4.166 E25.76949
G1 X-32.658 Y4.015 E25.77708
G1 X-32.806 Y2.532 E25.85144
G1 X-32.817 Y2.383 E25.85889
G1 X-32.891 Y0.895 E25.93322
G1 X-32.895 Y0.746 E25.94066
G1 X-32.895 Y-.745 E26.01504
G1 X-32.891 Y-.894 E26.02248
G1 X-32.817 Y-2.382 E26.09681
G1 X-32.806 Y-2.531 E26.10426
G1 X-32.658 Y-4.015 E26.17867
G1 X-32.639 Y-4.165 E26.18621
G1 X-32.416 Y-5.64 E26.26063
G1 X-32.391 Y-5.785 E26.26797
G1 X-32.096 Y-7.247 E26.34238
G1 X-32.062 Y-7.395 E26.34996
G1 X-31.694 Y-8.839 E26.4243
G1 X-31.654 Y-8.983 E26.43176
G1 X-31.208 Y-10.428 E26.50721
G1 X-31.16 Y-10.568 E26.51459
G1 X-30.658 Y-11.949 E26.5879
G1 X-30.603 Y-12.091 E26.5955
G1 X-30.023 Y-13.464 E26.66986
G1 X-29.962 Y-13.599 E26.67725
G1 X-29.315 Y-14.942 E26.75162
G1 X-29.246 Y-15.076 E26.75914
G1 X-28.532 Y-16.386 E26.83357
G1 X-28.458 Y-16.515 E26.84099
G1 X-27.681 Y-17.786 E26.91531
G1 X-27.602 Y-17.908 E26.92257
G1 X-26.764 Y-19.14 E26.9969
G1 X-26.673 Y-19.266 E27.00466
G1 X-25.771 Y-20.455 E27.07911
G1 X-25.677 Y-20.573 E27.08664
G1 X-24.704 Y-21.73 E27.16206
G1 X-24.608 Y-21.838 E27.16927
G1 X-23.609 Y-22.916 E27.24259
G1 X-23.504 Y-23.024 E27.25011
G1 X-22.437 Y-24.065 E27.32448
G1 X-22.327 Y-24.167 E27.33196
G1 X-21.21 Y-25.153 E27.4063
G1 X-21.095 Y-25.25 E27.4138
G1 X-19.928 Y-26.18 E27.48825
G1 X-19.81 Y-26.269 E27.49563
G1 X-18.601 Y-27.139 E27.56994
G1 X-18.474 Y-27.225 E27.57759
G1 X-17.202 Y-28.045 E27.65309
G1 X-17.076 Y-28.122 E27.66046
G1 X-15.804 Y-28.856 E27.73373
G1 X-15.673 Y-28.928 E27.74118
G1 X-14.326 Y-29.618 E27.81669
G1 X-14.189 Y-29.684 E27.82428
G1 X-12.829 Y-30.296 E27.89868
G1 X-12.696 Y-30.352 E27.90588
G1 X-11.33 Y-30.889 E27.97911
G1 X-11.187 Y-30.941 E27.9867
G1 X-9.773 Y-31.416 E28.06112
G1 X-9.627 Y-31.461 E28.06874
G1 X-8.17 Y-31.869 E28.14423
G1 X-8.029 Y-31.905 E28.15149
G1 X-6.598 Y-32.232 E28.22472
G1 X-6.451 Y-32.261 E28.2322
G1 X-4.982 Y-32.52 E28.30661
G1 X-4.833 Y-32.543 E28.31414
G1 X-3.354 Y-32.728 E28.3885
G1 X-3.207 Y-32.743 E28.39587
G1 X-1.719 Y-32.855 E28.47032
G1 X-1.568 Y-32.862 E28.47786
G1 X-0.028 Y-32.899 E28.55471
G1 X29.895 Y-32.9 E30.04758
G1 X30.383 Y-32.86 E30.072
G1 X30.858 Y-32.741 E30.09643
G1 X31.307 Y-32.547 E30.12084
G1 X31.719 Y-32.282 E30.14528
G1 X32.082 Y-31.954 E30.16968
G1 X32.387 Y-31.571 E30.19411
G1 X32.625 Y-31.144 E30.2185
G1 X32.791 Y-30.683 E30.24294
G1 X32.895 Y-29.9 E30.28235
G1 X32.895 Y29.9 E33.26579
G1 X32.855 Y30.388 E33.29021
G1 X32.736 Y30.863 E33.31464
G1 X32.542 Y31.312 E33.33905
G1 X32.277 Y31.724 E33.36349
G1 X31.949 Y32.087 E33.38789
G1 X31.566 Y32.392 E33.41232
G1 X31.138 Y32.63 E33.43675
G1 X30.678 Y32.796 E33.46115
G1 X29.895 Y32.9 E33.50056
G1 X-0.08 Y32.899 E34.99602
G1 X-1.591 Y32.861 E35.07143
G1 X-1.745 Y32.853 E35.07912
G1 X-3.233 Y32.739 E35.15357
G0 F3600 X-3.203 Y32.34
G1 F1800 X-3.326 Y32.328 E35.15974
G1 X-4.783 Y32.146 E35.23299
G1 X-4.911 Y32.127 E35.23945
G1 X-6.38 Y31.869 E35.31386
G1 X-6.513 Y31.842 E35.32063
G1 X-7.987 Y31.503 E35.39609
G1 X-8.109 Y31.472 E35.40237
G1 X-9.543 Y31.068 E35.4767
G1 X-9.666 Y31.03 E35.48312
G1 X-11.059 Y30.562 E35.55643
G1 X-11.183 Y30.516 E35.56303
G1 X-12.591 Y29.962 E35.63852
G1 X-12.709 Y29.913 E35.64489
G1 X-14.049 Y29.308 E35.71824
G1 X-14.165 Y29.252 E35.72467
G1 X-15.49 Y28.573 E35.79895
G1 X-15.604 Y28.511 E35.80542
G1 X-16.896 Y27.765 E35.87985
G1 X-17.007 Y27.697 E35.88635
G1 X-18.276 Y26.877 E35.96173
G1 X-18.384 Y26.803 E35.96826
G1 X-19.577 Y25.944 E36.0416
G1 X-19.678 Y25.867 E36.04794
G1 X-20.845 Y24.937 E36.12239
G1 X-20.946 Y24.853 E36.12894
G1 X-22.08 Y23.852 E36.2044
G1 X-22.177 Y23.761 E36.21104
G1 X-23.242 Y22.719 E36.28537
G1 X-23.329 Y22.63 E36.29158
G1 X-24.329 Y21.553 E36.36491
G1 X-24.417 Y21.454 E36.37151
G1 X-25.374 Y20.312 E36.44585
G1 X-25.453 Y20.213 E36.45217
G1 X-26.353 Y19.026 E36.52649
G1 X-26.43 Y18.919 E36.53306
G1 X-27.27 Y17.686 E36.6075
G1 X-27.339 Y17.578 E36.61389
G1 X-28.117 Y16.305 E36.68832
G1 X-28.183 Y16.191 E36.69489
G1 X-28.905 Y14.863 E36.77031
G1 X-28.963 Y14.75 E36.77664
G1 X-29.602 Y13.425 E36.85003
G1 X-29.656 Y13.305 E36.8566
G1 X-30.234 Y11.933 E36.93087
G1 X-30.281 Y11.814 E36.93726
G1 X-30.792 Y10.412 E37.0117
G1 X-30.834 Y10.286 E37.01833
G1 X-31.272 Y8.861 E37.09271
G1 X-31.307 Y8.736 E37.09918
G1 X-31.679 Y7.27 E37.17464
G1 X-31.708 Y7.144 E37.18109
G1 X-32.002 Y5.684 E37.25539
G1 X-32.024 Y5.56 E37.26167
G1 X-32.244 Y4.106 E37.33504
G1 X-32.26 Y3.975 E37.34162
