;FLAVOR:Marlin
;TIME:225
;Filament used: 0.212354m
;Layer height: 0.15
;MINX:-14.636
;MINY:-14.636
;MINZ:0.3
;MAXX:14.636
;MAXY:14.636
;MAXZ:7.95
;Generated with Cura_SteamEngine 4.8.0
M140 S60
M105
M190 S60
M104 S200
M105
M109 S200
M82 ;absolute extrusion mode
G21        ;metric values
G90        ;absolute positioning
M107       ;start with the fan off
G28   ;move to endstops
G92 E0                  ;zero the extruded length
G1 F200 E3              ;extrude 3mm of feed stock
G92 E0                  ;zero the extruded length again
G1 F120
;Put printing message on LCD screen
M117 Printing...
G92 E0
G92 E0
G1 F1500 E-6.5
;LAYER_COUNT:52
;LAYER:0
M107
G0 F3600 X14.635 Y-.334 Z0.3
;TYPE:SKIRT
G1 F1500 E0
G1 F1800 X14.636 Y0.329 E0.03308
G1 X14.471 Y2.216 E0.12758
G1 X14.356 Y2.867 E0.16056
G1 X13.868 Y4.692 E0.25481
G1 X13.64 Y5.318 E0.28805
G1 X12.838 Y7.035 E0.38259
G1 X12.508 Y7.606 E0.4155
G1 X11.426 Y9.152 E0.50964
G1 X11 Y9.66 E0.54272
G1 X9.66 Y11 E0.63726
G1 X9.152 Y11.426 E0.67034
G1 X7.606 Y12.508 E0.76448
G1 X7.036 Y12.838 E0.79734
G1 X5.32 Y13.64 E0.89184
G1 X4.692 Y13.868 E0.92517
G1 X2.866 Y14.356 E1.01947
G1 X2.216 Y14.471 E1.0524
G1 X0.331 Y14.636 E1.1468
G1 X-.331 Y14.636 E1.17983
G1 X-2.216 Y14.471 E1.27423
G1 X-2.866 Y14.356 E1.30716
G1 X-4.692 Y13.868 E1.40146
G1 X-5.32 Y13.64 E1.43479
G1 X-7.036 Y12.838 E1.52929
G1 X-7.606 Y12.508 E1.56215
G1 X-9.152 Y11.426 E1.6563
G1 X-9.66 Y11 E1.68937
G1 X-11 Y9.66 E1.78392
G1 X-11.426 Y9.152 E1.81699
G1 X-12.508 Y7.606 E1.91114
G1 X-12.838 Y7.035 E1.94404
G1 X-13.64 Y5.318 E2.03859
G1 X-13.868 Y4.692 E2.07182
G1 X-14.356 Y2.867 E2.16607
G1 X-14.47 Y2.217 E2.199
G1 X-14.635 Y0.334 E2.2933
G1 X-14.636 Y-.329 E2.32638
G1 X-14.471 Y-2.216 E2.42088
G1 X-14.356 Y-2.867 E2.45386
G1 X-13.868 Y-4.692 E2.54811
G1 X-13.64 Y-5.318 E2.58135
G1 X-12.838 Y-7.035 E2.67589
G1 X-12.508 Y-7.606 E2.70879
G1 X-11.426 Y-9.152 E2.80294
G1 X-11 Y-9.66 E2.83601
G1 X-9.66 Y-11 E2.93056
G1 X-9.152 Y-11.426 E2.96363
G1 X-7.606 Y-12.508 E3.05778
G1 X-7.036 Y-12.838 E3.09064
G1 X-5.32 Y-13.64 E3.18514
G1 X-4.692 Y-13.868 E3.21847
G1 X-2.866 Y-14.356 E3.31277
G1 X-2.216 Y-14.471 E3.3457
G1 X-.331 Y-14.636 E3.4401
G1 X0.331 Y-14.636 E3.47313
G1 X2.216 Y-14.471 E3.56753
G1 X2.866 Y-14.356 E3.60046
G1 X4.692 Y-13.868 E3.69476
G1 X5.32 Y-13.64 E3.72809
G1 X7.036 Y-12.838 E3.82259
G1 X7.606 Y-12.508 E3.85545
G1 X9.152 Y-11.426 E3.9496
G1 X9.66 Y-11 E3.98267
G1 X11 Y-9.66 E4.07722
G1 X11.426 Y-9.152 E4.11029
G1 X12.508 Y-7.606 E4.20444
G1 X12.838 Y-7.036 E4.2373
G1 X13.639 Y-5.322 E4.33168
G1 X13.867 Y-4.695 E4.36497
G1 X14.356 Y-2.867 E4.45938
G1 X14.47 Y-2.217 E4.4923
G1 X14.635 Y-.334 E4.5866
G0 F3600 X14.237 Y-.299
G1 F1800 X14.237 Y0.294 E4.61619
G1 X14.072 Y2.181 E4.71069
G1 X13.97 Y2.763 E4.74017
G1 X13.482 Y4.588 E4.83442
G1 X13.278 Y5.149 E4.8642
G1 X12.476 Y6.866 E4.95874
G1 X12.181 Y7.377 E4.98818
G1 X11.099 Y8.923 E5.08232
G1 X10.717 Y9.377 E5.11193
G1 X9.377 Y10.717 E5.20647
G1 X8.923 Y11.099 E5.23607
G1 X7.377 Y12.181 E5.33022
G1 X6.867 Y12.475 E5.35958
G1 X5.151 Y13.277 E5.45408
G1 X4.589 Y13.482 E5.48393
G1 X2.763 Y13.97 E5.57823
G1 X2.181 Y14.072 E5.60771
G1 X0.296 Y14.237 E5.70211
G1 X-.296 Y14.237 E5.73164
G1 X-2.181 Y14.072 E5.82605
G1 X-2.763 Y13.97 E5.85552
G1 X-4.589 Y13.482 E5.94982
G1 X-5.151 Y13.277 E5.97967
G1 X-6.867 Y12.475 E6.07417
G1 X-7.377 Y12.181 E6.10354
G1 X-8.923 Y11.099 E6.19768
G1 X-9.377 Y10.717 E6.22728
G1 X-10.717 Y9.377 E6.32182
G1 X-11.099 Y8.923 E6.35143
G1 X-12.181 Y7.377 E6.44557
G1 X-12.476 Y6.866 E6.47501
G1 X-13.278 Y5.149 E6.56955
G1 X-13.482 Y4.588 E6.59933
G1 X-13.97 Y2.763 E6.69358
G1 X-14.072 Y2.182 E6.72301
G1 X-14.237 Y0.299 E6.81732
G1 X-14.237 Y-.294 E6.8469
G1 X-14.072 Y-2.181 E6.9414
G1 X-13.97 Y-2.763 E6.97088
G1 X-13.482 Y-4.588 E7.06513
G1 X-13.278 Y-5.149 E7.09491
G1 X-12.476 Y-6.866 E7.18946
G1 X-12.181 Y-7.377 E7.21889
G1 X-11.099 Y-8.923 E7.31304
G1 X-10.717 Y-9.377 E7.34264
G1 X-9.377 Y-10.717 E7.43718
G1 X-8.923 Y-11.099 E7.46678
G1 X-7.377 Y-12.181 E7.56093
G1 X-6.867 Y-12.475 E7.5903
G1 X-5.151 Y-13.277 E7.6848
G1 X-4.589 Y-13.482 E7.71464
G1 X-2.763 Y-13.97 E7.80894
G1 X-2.181 Y-14.072 E7.83842
G1 X-.296 Y-14.237 E7.93282
G1 X0.296 Y-14.237 E7.96236
G1 X2.181 Y-14.072 E8.05676
G1 X2.763 Y-13.97 E8.08624
G1 X4.589 Y-13.482 E8.18053
G1 X5.151 Y-13.277 E8.21038
G1 X6.867 Y-12.475 E8.30488
G1 X7.377 Y-12.181 E8.33425
G1 X8.923 Y-11.099 E8.42839
G1 X9.377 Y-10.717 E8.45799
G1 X10.717 Y-9.377 E8.55254
G1 X11.099 Y-8.923 E8.58214
G1 X12.181 Y-7.377 E8.67628
G1 X12.475 Y-6.866 E8.70569
G1 X13.276 Y-5.152 E8.80008
G1 X13.481 Y-4.592 E8.82984
G1 X13.97 Y-2.764 E8.92424
G1 X14.072 Y-2.182 E8.95372
G1 X14.237 Y-.299 E9.04802
G0 F3600 X13.839 Y-.264
G1 F1800 X13.839 Y0.259 E9.07412
G1 X13.674 Y2.146 E9.16862
G1 X13.583 Y2.66 E9.19466
G1 X13.095 Y4.485 E9.28891
G1 X12.915 Y4.98 E9.31519
G1 X12.113 Y6.697 E9.40973
G1 X11.853 Y7.147 E9.43566
G1 X10.771 Y8.693 E9.5298
G1 X10.434 Y9.094 E9.55594
G1 X9.094 Y10.434 E9.65048
G1 X8.693 Y10.771 E9.67661
G1 X7.147 Y11.853 E9.77076
G1 X6.697 Y12.113 E9.79669
G1 X4.981 Y12.915 E9.89119
G1 X4.486 Y13.095 E9.91746
G1 X2.66 Y13.583 E10.01176
G1 X2.147 Y13.674 E10.03775
G1 X0.262 Y13.839 E10.13216
G1 X-.262 Y13.839 E10.1583
G1 X-2.147 Y13.674 E10.2527
G1 X-2.66 Y13.583 E10.27869
G1 X-4.486 Y13.095 E10.37299
G1 X-4.981 Y12.915 E10.39927
G1 X-6.697 Y12.113 E10.49377
G1 X-7.147 Y11.853 E10.5197
G1 X-8.693 Y10.771 E10.61384
G1 X-9.094 Y10.434 E10.63997
G1 X-10.434 Y9.094 E10.73452
G1 X-10.771 Y8.693 E10.76065
G1 X-11.853 Y7.147 E10.85479
G1 X-12.113 Y6.697 E10.88072
G1 X-12.915 Y4.98 E10.97527
G1 X-13.095 Y4.485 E11.00155
G1 X-13.583 Y2.66 E11.0958
G1 X-13.674 Y2.147 E11.12179
G1 X-13.839 Y0.264 E11.21609
G1 X-13.839 Y-.259 E11.24218
G1 X-13.674 Y-2.146 E11.33669
G1 X-13.583 Y-2.66 E11.36273
G1 X-13.095 Y-4.485 E11.45698
G1 X-12.915 Y-4.98 E11.48325
G1 X-12.113 Y-6.697 E11.5778
G1 X-11.853 Y-7.147 E11.60373
G1 X-10.771 Y-8.693 E11.69787
G1 X-10.434 Y-9.094 E11.72401
G1 X-9.094 Y-10.434 E11.81855
G1 X-8.693 Y-10.771 E11.84468
G1 X-7.147 Y-11.853 E11.93883
G1 X-6.697 Y-12.113 E11.96475
G1 X-4.981 Y-12.915 E12.05925
G1 X-4.486 Y-13.095 E12.08553
G1 X-2.66 Y-13.583 E12.17983
G1 X-2.147 Y-13.674 E12.20582
G1 X-.262 Y-13.839 E12.30022
G1 X0.262 Y-13.839 E12.32637
G1 X2.147 Y-13.674 E12.42077
G1 X2.66 Y-13.583 E12.44676
G1 X4.486 Y-13.095 E12.54106
G1 X4.981 Y-12.915 E12.56734
G1 X6.697 Y-12.113 E12.66184
G1 X7.147 Y-11.853 E12.68777
G1 X8.693 Y-10.771 E12.78191
G1 X9.094 Y-10.434 E12.80804
G1 X10.434 Y-9.094 E12.90259
G1 X10.771 Y-8.693 E12.92872
G1 X11.853 Y-7.147 E13.02286
G1 X12.113 Y-6.697 E13.04879
G1 X12.914 Y-4.983 E13.14318
G1 X13.094 Y-4.488 E13.16946
G1 X13.583 Y-2.66 E13.26386
G1 X13.674 Y-2.147 E13.28986
G1 X13.839 Y-.264 E13.38416
G0 F3600 X13.44 Y-.229
G1 F1800 X13.44 Y0.224 E13.40676
G1 X13.275 Y2.111 E13.50126
G1 X13.197 Y2.557 E13.52385
G1 X12.709 Y4.382 E13.6181
G1 X12.553 Y4.81 E13.64083
G1 X11.751 Y6.527 E13.73537
G1 X11.525 Y6.918 E13.7579
G1 X10.443 Y8.464 E13.85205
G1 X10.151 Y8.811 E13.87467
G1 X8.811 Y10.151 E13.96922
G1 X8.464 Y10.443 E13.99184
G1 X6.918 Y11.525 E14.08599
G1 X6.528 Y11.75 E14.10845
G1 X4.812 Y12.552 E14.20295
G1 X4.382 Y12.709 E14.22579
G1 X2.556 Y13.197 E14.32009
G1 X2.112 Y13.275 E14.34258
G1 X0.227 Y13.44 E14.43698
G1 X-.227 Y13.44 E14.45963
G1 X-2.112 Y13.275 E14.55403
G1 X-2.556 Y13.197 E14.57652
G1 X-4.382 Y12.709 E14.67082
G1 X-4.812 Y12.552 E14.69366
G1 X-6.528 Y11.75 E14.78816
G1 X-6.918 Y11.525 E14.81062
G1 X-8.464 Y10.443 E14.90476
G1 X-8.811 Y10.151 E14.92739
G1 X-10.151 Y8.811 E15.02193
G1 X-10.443 Y8.464 E15.04456
G1 X-11.525 Y6.918 E15.1387
G1 X-11.751 Y6.527 E15.16123
G1 X-12.553 Y4.81 E15.25578
G1 X-12.709 Y4.382 E15.27851
G1 X-13.197 Y2.557 E15.37276
G1 X-13.275 Y2.112 E15.3953
G1 X-13.44 Y0.229 E15.4896
G1 X-13.44 Y-.224 E15.5122
G1 X-13.275 Y-2.111 E15.6067
G1 X-13.197 Y-2.557 E15.62929
G1 X-12.709 Y-4.382 E15.72354
G1 X-12.553 Y-4.81 E15.74627
G1 X-11.751 Y-6.527 E15.84081
G1 X-11.525 Y-6.918 E15.86334
G1 X-10.443 Y-8.464 E15.95749
G1 X-10.151 Y-8.811 E15.98011
G1 X-8.811 Y-10.151 E16.07466
G1 X-8.464 Y-10.443 E16.09728
G1 X-6.918 Y-11.525 E16.19143
G1 X-6.528 Y-11.75 E16.21389
G1 X-4.812 Y-12.552 E16.30839
G1 X-4.382 Y-12.709 E16.33123
G1 X-2.556 Y-13.197 E16.42552
G1 X-2.112 Y-13.275 E16.44801
G1 X-.227 Y-13.44 E16.54242
G1 X0.227 Y-13.44 E16.56507
G1 X2.112 Y-13.275 E16.65947
G1 X2.556 Y-13.197 E16.68196
G1 X4.382 Y-12.709 E16.77626
G1 X4.812 Y-12.552 E16.79909
G1 X6.528 Y-11.75 E16.89359
G1 X6.918 Y-11.525 E16.91606
G1 X8.464 Y-10.443 E17.0102
G1 X8.811 Y-10.151 E17.03283
G1 X10.151 Y-8.811 E17.12737
G1 X10.443 Y-8.464 E17.15
G1 X11.525 Y-6.918 E17.24414
G1 X11.75 Y-6.528 E17.2666
G1 X12.551 Y-4.814 E17.36099
G1 X12.708 Y-4.385 E17.38378
G1 X13.197 Y-2.557 E17.47819
G1 X13.275 Y-2.112 E17.50073
G1 X13.44 Y-.229 E17.59503
G0 F3600 X13.042 Y-.194
G1 F1800 X13.042 Y0.19 E17.61419
G1 X12.877 Y2.077 E17.70869
G1 X12.81 Y2.453 E17.72775
G1 X12.322 Y4.278 E17.822
G1 X12.19 Y4.641 E17.84127
G1 X11.388 Y6.358 E17.93581
G1 X11.197 Y6.688 E17.95483
G1 X10.115 Y8.234 E18.04898
G1 X9.869 Y8.529 E18.06814
G1 X8.529 Y9.869 E18.16269
G1 X8.234 Y10.115 E18.18185
G1 X6.688 Y11.197 E18.27599
G1 X6.358 Y11.388 E18.29501
G1 X4.642 Y12.19 E18.38951
G1 X4.279 Y12.322 E18.40879
G1 X2.453 Y12.81 E18.50308
G1 X2.077 Y12.877 E18.52214
G1 X0.192 Y13.042 E18.61654
G1 X-.192 Y13.042 E18.6357
G1 X-2.077 Y12.877 E18.7301
G1 X-2.453 Y12.81 E18.74915
G1 X-4.279 Y12.322 E18.84345
G1 X-4.642 Y12.19 E18.86272
G1 X-6.358 Y11.388 E18.95722
G1 X-6.688 Y11.197 E18.97624
G1 X-8.234 Y10.115 E19.07039
G1 X-8.529 Y9.869 E19.08955
G1 X-9.869 Y8.529 E19.18409
G1 X-10.115 Y8.234 E19.20326
G1 X-11.197 Y6.688 E19.2974
G1 X-11.388 Y6.358 E19.31642
G1 X-12.19 Y4.641 E19.41097
G1 X-12.322 Y4.278 E19.43024
G1 X-12.81 Y2.453 E19.52449
G1 X-12.877 Y2.077 E19.54354
G1 X-13.042 Y0.194 E19.63785
G1 X-13.042 Y-.19 E19.657
G1 X-12.877 Y-2.077 E19.75151
G1 X-12.81 Y-2.453 E19.77056
G1 X-12.322 Y-4.278 E19.86481
G1 X-12.19 Y-4.641 E19.88408
G1 X-11.388 Y-6.358 E19.97862
G1 X-11.197 Y-6.688 E19.99765
G1 X-10.115 Y-8.234 E20.09179
G1 X-9.869 Y-8.529 E20.11095
G1 X-8.529 Y-9.869 E20.2055
G1 X-8.234 Y-10.115 E20.22466
G1 X-6.688 Y-11.197 E20.31881
G1 X-6.358 Y-11.388 E20.33783
G1 X-4.642 Y-12.19 E20.43233
G1 X-4.279 Y-12.322 E20.4516
G1 X-2.453 Y-12.81 E20.5459
G1 X-2.077 Y-12.877 E20.56495
G1 X-.192 Y-13.042 E20.65935
G1 X0.192 Y-13.042 E20.67851
G1 X2.077 Y-12.877 E20.77291
G1 X2.453 Y-12.81 E20.79197
G1 X4.279 Y-12.322 E20.88626
G1 X4.642 Y-12.19 E20.90553
G1 X6.358 Y-11.388 E21.00003
G1 X6.688 Y-11.197 E21.01906
G1 X8.234 Y-10.115 E21.1132
G1 X8.529 Y-9.869 E21.13236
G1 X9.869 Y-8.529 E21.22691
G1 X10.115 Y-8.234 E21.24607
G1 X11.197 Y-6.688 E21.34022
G1 X11.388 Y-6.358 E21.35924
G1 X12.189 Y-4.644 E21.45363
G1 X12.321 Y-4.282 E21.47285
G1 X12.81 Y-2.454 E21.56726
G1 X12.877 Y-2.077 E21.58636
G1 X13.042 Y-.194 E21.68066
G0 F3600 X12.643 Y-.159
G1 F1800 X12.643 Y0.155 E21.69633
G1 X12.478 Y2.042 E21.79083
G1 X12.424 Y2.35 E21.80643
G1 X11.936 Y4.175 E21.90068
G1 X11.828 Y4.472 E21.91645
G1 X11.026 Y6.189 E22.01099
G1 X10.87 Y6.459 E22.02655
G1 X9.788 Y8.005 E22.12069
G1 X9.586 Y8.246 E22.13638
G1 X8.246 Y9.586 E22.23092
G1 X8.005 Y9.788 E22.24661
G1 X6.459 Y10.87 E22.34076
G1 X6.189 Y11.026 E22.35631
G1 X4.473 Y11.828 E22.45081
G1 X4.176 Y11.936 E22.46658
G1 X2.35 Y12.424 E22.56088
G1 X2.042 Y12.478 E22.57648
G1 X0.157 Y12.643 E22.67088
G1 X-.157 Y12.643 E22.68655
G1 X-2.042 Y12.478 E22.78095
G1 X-2.35 Y12.424 E22.79655
G1 X-4.176 Y11.936 E22.89085
G1 X-4.473 Y11.828 E22.90661
G1 X-6.189 Y11.026 E23.00111
G1 X-6.459 Y10.87 E23.01667
G1 X-8.005 Y9.788 E23.11081
G1 X-8.246 Y9.586 E23.1265
G1 X-9.586 Y8.246 E23.22105
G1 X-9.788 Y8.005 E23.23674
G1 X-10.87 Y6.459 E23.33088
G1 X-11.026 Y6.189 E23.34644
G1 X-11.828 Y4.472 E23.44098
G1 X-11.936 Y4.175 E23.45675
G1 X-12.424 Y2.35 E23.551
G1 X-12.478 Y2.042 E23.5666
G1 X-12.643 Y0.159 E23.6609
G1 X-12.643 Y-.155 E23.67657
G1 X-12.478 Y-2.042 E23.77107
G1 X-12.424 Y-2.35 E23.78667
G1 X-11.936 Y-4.175 E23.88092
G1 X-11.828 Y-4.472 E23.89668
G1 X-11.026 Y-6.189 E23.99123
G1 X-10.87 Y-6.459 E24.00679
G1 X-9.788 Y-8.005 E24.10093
G1 X-9.586 Y-8.246 E24.11662
G1 X-8.246 Y-9.586 E24.21116
G1 X-8.005 Y-9.788 E24.22685
G1 X-6.459 Y-10.87 E24.321
G1 X-6.189 Y-11.026 E24.33655
G1 X-4.473 Y-11.828 E24.43105
G1 X-4.176 Y-11.936 E24.44682
G1 X-2.35 Y-12.424 E24.54112
G1 X-2.042 Y-12.478 E24.55672
G1 X-.157 Y-12.643 E24.65112
G1 X0.157 Y-12.643 E24.66678
G1 X2.042 Y-12.478 E24.76119
G1 X2.35 Y-12.424 E24.77679
G1 X4.176 Y-11.936 E24.87108
G1 X4.473 Y-11.828 E24.88685
G1 X6.189 Y-11.026 E24.98135
G1 X6.459 Y-10.87 E24.99691
G1 X8.005 Y-9.788 E25.09105
G1 X8.246 Y-9.586 E25.10674
G1 X9.586 Y-8.246 E25.20128
G1 X9.788 Y-8.005 E25.21697
G1 X10.87 Y-6.459 E25.31112
G1 X11.026 Y-6.189 E25.32667
G1 X11.827 Y-4.475 E25.42106
G1 X11.935 Y-4.178 E25.43683
G1 X12.424 Y-2.35 E25.53124
G1 X12.478 Y-2.042 E25.54684
G1 X12.643 Y-.159 E25.64114
G0 F3600 X12.245 Y-.124
G1 F1800 X12.245 Y0.12 E25.65331
G1 X12.08 Y2.007 E25.74781
G1 X12.037 Y2.247 E25.75998
G1 X11.549 Y4.072 E25.85423
G1 X11.465 Y4.302 E25.86644
G1 X10.663 Y6.019 E25.96099
G1 X10.542 Y6.23 E25.97312
G1 X9.46 Y7.776 E26.06727
G1 X9.303 Y7.963 E26.07945
G1 X7.963 Y9.303 E26.17399
G1 X7.776 Y9.46 E26.18618
G1 X6.23 Y10.542 E26.28032
G1 X6.02 Y10.663 E26.29241
G1 X4.304 Y11.465 E26.38691
G1 X4.072 Y11.55 E26.39924
G1 X2.246 Y12.038 E26.49353
G1 X2.007 Y12.08 E26.50564
G1 X0.122 Y12.245 E26.60004
G1 X-.122 Y12.245 E26.61222
G1 X-2.007 Y12.08 E26.70662
G1 X-2.246 Y12.038 E26.71873
G1 X-4.072 Y11.55 E26.81302
G1 X-4.304 Y11.465 E26.82535
G1 X-6.02 Y10.663 E26.91985
G1 X-6.23 Y10.542 E26.93194
G1 X-7.776 Y9.46 E27.02609
G1 X-7.963 Y9.303 E27.03827
G1 X-9.303 Y7.963 E27.13281
G1 X-9.46 Y7.776 E27.14499
G1 X-10.542 Y6.23 E27.23914
G1 X-10.663 Y6.019 E27.25127
G1 X-11.465 Y4.302 E27.34582
G1 X-11.549 Y4.072 E27.35803
G1 X-12.037 Y2.247 E27.45228
G1 X-12.08 Y2.007 E27.46445
G1 X-12.245 Y0.124 E27.55875
G1 X-12.245 Y-.12 E27.57092
G1 X-12.08 Y-2.007 E27.66542
G1 X-12.037 Y-2.247 E27.67759
G1 X-11.549 Y-4.072 E27.77184
G1 X-11.465 Y-4.302 E27.78405
G1 X-10.663 Y-6.019 E27.8786
G1 X-10.542 Y-6.23 E27.89073
G1 X-9.46 Y-7.776 E27.98488
G1 X-9.303 Y-7.963 E27.99706
G1 X-7.963 Y-9.303 E28.0916
G1 X-7.776 Y-9.46 E28.10378
G1 X-6.23 Y-10.542 E28.19793
G1 X-6.02 Y-10.663 E28.21002
G1 X-4.304 Y-11.465 E28.30452
G1 X-4.072 Y-11.55 E28.31685
G1 X-2.246 Y-12.038 E28.41114
G1 X-2.007 Y-12.08 E28.42325
G1 X-.122 Y-12.245 E28.51765
G1 X0.122 Y-12.245 E28.52983
G1 X2.007 Y-12.08 E28.62423
G1 X2.246 Y-12.038 E28.63634
G1 X4.072 Y-11.55 E28.73063
G1 X4.304 Y-11.465 E28.74296
G1 X6.02 Y-10.663 E28.83746
G1 X6.23 Y-10.542 E28.84955
G1 X7.776 Y-9.46 E28.94369
G1 X7.963 Y-9.303 E28.95588
G1 X9.303 Y-7.963 E29.05042
G1 X9.46 Y-7.776 E29.0626
G1 X10.542 Y-6.23 E29.15675
G1 X10.663 Y-6.02 E29.16884
G1 X11.464 Y-4.306 E29.26323
G1 X11.548 Y-4.075 E29.27549
G1 X12.037 Y-2.247 E29.36989
G1 X12.08 Y-2.007 E29.38206
G1 X12.245 Y-.124 E29.47636
G0 F3600 X11.846 Y-0.089
G1 F1800 X11.846 Y0.085 E29.48504
G1 X11.681 Y1.972 E29.57955
G1 X11.651 Y2.143 E29.58821
G1 X11.163 Y3.968 E29.68246
G1 X11.103 Y4.133 E29.69121
G1 X10.301 Y5.85 E29.78576
G1 X10.214 Y6 E29.79441
G1 X9.132 Y7.546 E29.88856
G1 X9.02 Y7.68 E29.89727
G1 X7.68 Y9.02 E29.99181
G1 X7.546 Y9.132 E30.00053
G1 X6 Y10.214 E30.09467
